X:1
T:The Land of Sunshine
T:The Land of Sunshine
T:Charles A. Bechter
T:Charles Edmunds, 1898, alt.
T:Public Domain Courtesy of the Cyber Hymnal™
T:Public Domain Courtesy of the Cyber Hymnal™
C:Charles A. Bechter
Z:Public Domain
Z:Courtesy of the Cyber Hymnal™
%%score ( 1 2 ) ( 3 4 )
L:1/8
Q:1/4=92
M:4/4
K:Eb
V:1 treble 
V:2 treble 
V:3 bass 
V:4 bass 
V:1
 [EG][DA] | [EB][E=A][EB][Ec] [EB][EG][Ee][Ed] | [Ec][EA][Ec][Ee] [EB]2 [EG][DA] | %3
w: 1.~Far a-|way be- yond the sha- dows of the|world, with all its care, There’s a|
w: 2.~There the|Sav- ior sits in glo- ry on His|throne of roy- al might, While the|
w: 3.~There are|ma- ny loved ones yon- der who will|bid us wel- come home When our|
w: 4.~We shall|glad- ly hear the mes- sage when He|bids us, “Rise and come,” And we|
 [EB][E=A][EB][Ec] [EB][EG][EA][EA] | [DB]6 [EG][DA] | [EB][E^A][EB][Ec] [EB][EG][Ee][Ed] | %6
w: land where glor- ious sun- light ne- ver|dies; Where the|Fa- ther has pre- pared for us a|
w: an- gel hosts, a- dor- ing, round Him|fall; The tri-|umph- ant chor- us swell- ing, from the|
w: jour- ney- ing and tri- als here are|o’er; And our|spir- its shall be waft- ed safe a-|
w: lay our ev- ery earth- ly bur- den|down; On an|an- gel’s snow- y pin- ions we shall|
 [Ec][EA][Ec][Ee] [EB]2 [EB][EB] | [Ec][E=B][Ec][Ee] [Ad][A_B][Ac][Ad] | [Ge]6 z2 || %9
w: man- sion bright and fair, Where He|sum- mons all His loved ones to the|skies.|
w: ser- aphs pure and bright, As they|hail the gen- tle Sav- ior “Lord of|all.”|
w: cross the swell- ing tide To the|gold- en strand of Hea- ven’s sun- lit|shore.|
w: speed to yon bright home And will|wear the spot- less robe and heav’n- ly|crown.|
"^Refrain" [Ge]2 [Gd][Gc] [GB]2 [EG]2 | (F>=E) [CF][CA] [Fc]4 | [Fd]2 [Fc][FB] [DA][DA] [DF]2 | %12
w: |||
w: Fair land of sun- shine,|bright * are thy skies;|To thee with long- ing I|
w: |||
w: |||
 E2 ([EG]>[_Gc]) [=GB]4 | [Ge]2 [Gd][Gc] [GB]2 [EG]2 (F>=E)[CF]>[CA] [_Gc]4 | %14
w: ||
w: lift mine * eyes;|Dear ones are call- ing, call- * ing to me,|
w: ||
w: ||
 [GB]2 [G=A][GB] [_Gc]2 [Gc]2 | [Fd]2 [Fc][Fd] [Ee]4 |] x4 |] %17
w: |||
w: Wait- ing my com- ing|o- ver the sea.||
w: |||
w: |||
V:2
 x2 | x8 | x8 | x8 | x8 | x8 | x8 | x8 | x8 || x8 | C2 x6 | x8 | E2 x6 | x8 C2 x6 | x8 | x8 |] %16
 x4 |] %17
V:3
 [E,B,][F,B,] | [G,B,][^F,C][G,B,]A, [G,B,][G,B,][G,B,][G,B,] | %2
 [A,C][A,C][A,C][A,C] [G,B,]2 [E,B,][F,B,] | [G,B,][^F,B,][G,B,]A, [G,B,][G,B,][F,C][F,C] | %4
 [B,,B,]6 [E,B,][F,B,] | [G,B,][^F,C][G,B,]A, [G,B,][G,B,][G,B,][G,B,] | %6
 [A,C][A,C][A,C][A,C] [G,B,]2 [G,B,][G,B,] | [F,=A,][F,A,][F,A,][F,A,] B,[B,D][B,D]B, | %8
 [E,B,]6 z2 || [E,B,]2 [E,B,][E,B,] [E,B,]2 [E,B,]2 | A,2 A,A, [A,C]4 | %11
 [B,,B,]2 [B,,B,][B,,B,] [D,B,][D,B,] [C,B,]2 | [E,G,]2 (B,>=A,) [E,B,]4 | %13
 [E,B,]2 [E,B,][E,B,] [E,B,]2 [E,B,]2 A,2 _A,>_A, [=A,E]4 | [B,E]2 [B,E][B,E] [=A,E]2 [A,E]2 | %15
 B,2 [B,,A,][B,,A,] x4 |] [E,G,]4 |] %17
V:4
 x2 | x3 A, x4 | x8 | x3 A, x4 | x8 | x3 A, x4 | x8 | x4 B, x B, x | x8 || x8 | A,2 A,A, x4 | x8 | %12
 x2 E,2 x4 | x8 =A,2 =A,>=A, x4 | x8 | B,2 x6 |] x4 |] %17

